!!!OTL: A Dirndel geht um Holz in Wald
!!!OTL-incipit: A Dirndel geht um Holz in Wald, recht zeitig in der Frueeh
!!!ARE: Europa, Mitteleuropa, Deutschland, Untermainfranken, Spessart
!!!SCT: D0164A
!!!YEM: Copyright 1995, estate of Helmut Schaffrath.
**kern
*ICvox
*M6/8
*k[f#]
*G:
{8d
=1
4b
8b
4a
8g
=2
4cc
8cc
4a}
{8d
=3
4cc
8cc
4b
8a
=4
4dd
8r
4r}
{8b
=5
4dd
8dd
4cc
8b
=6
4ee
8ee
4a}
{8dd
=7
4ff#
8ee
4dd
8cc
=8
4b
8r
4r}
==
!!!AGN: Jaeger - Lied, Liebes - Lied
!! Inzipit = Variante zum Lied
!!!ONB: ESAC (Essen Associative Code) Database: DVA
!!!AMT: compound duple
!!!AIN: vox
!!!EED: Helmut Schaffrath
!!!EEV: 1.0
!!!YOR: https://freidok.uni-freiburg.de/data/150373
!!!EFL: A216049
!!!ENC: Anna Maria Matuszewska
!!!EEV: 2025/06/04
*-
